public/illustrations/heart.svg

<svg width="288" height="170" viewBox="0 0 288 170" fill="none" xmlns="http://www.w3.org/2000/svg">
<path d="M148.353 26.1822C150.59 23.662 152.431 21.6514 154.342 19.7542C169.563 3.57089 187.941 0.498244 208.683 6.06257C232.144 12.3348 246.43 40.0149 240.908 65.6278C238.374 77.4502 232.682 87.687 225.73 97.2724C210.864 118.029 191.084 133.929 172.437 150.862C165.57 157.092 157.429 162.048 149.74 167.258C144.53 170.769 139.277 170.047 134.039 166.479C116.255 154.091 102.607 137.624 88.0656 121.908C75.6059 108.486 64.6044 94.1716 56.9729 77.4079C46.7786 54.8108 51.0262 29.5095 67.2662 13.128C84.8371 -4.69762 125.374 -6.3686 144.219 20.646C145.479 22.5574 147.05 24.1431 148.749 26.3094L148.367 26.1822H148.353ZM170.766 82.8449C171.403 82.2219 171.857 81.5279 172.296 80.82C175.948 73.5 181.852 71.0647 189.753 72.6788C200.004 74.8875 210.439 76.5299 220.69 78.7387C223.847 79.39 225.815 78.8944 226.537 75.8644C228.279 69.4789 230.983 63.0934 231.45 56.7078C232.413 41.6997 227.429 28.3768 214.361 20.1365C201.052 11.6979 186.553 11.4288 172.069 18.5789C164.197 22.4583 159.284 29.4667 153.733 35.8239C149.528 40.737 145.606 40.7797 141.826 35.3853C139.815 32.5819 137.805 29.7924 135.794 26.989C123.731 10.2111 103.541 7.05367 86.4796 12.7879C70.5511 18.2673 59.6914 37.2118 61.6736 55.9577C63.2311 71.2915 71.2024 83.9349 79.7543 96.1396C80.448 96.9042 81.326 97.4139 82.3454 97.5413C91.0813 99.2403 91.7042 98.929 95.6828 90.9719C97.2119 87.9986 98.5003 84.8409 99.8453 81.811C102.79 75.3122 105.495 68.9268 108.624 62.4847C110.04 59.5821 111.951 56.7365 115.873 57.0196C119.738 57.1612 121.423 60.276 122.924 63.3201C123.236 63.9573 123.618 64.7218 123.802 65.4156C125.968 73.3444 128.149 81.2732 130.131 89.1312C131.193 92.8691 131.929 96.6068 132.793 100.288C136.049 94.1007 138.301 87.7861 140.807 81.6554C143.893 74.1372 146.838 66.6758 150.548 59.4832C153.493 53.6074 159.694 54.0179 162.837 59.738L164.027 62.1449C166.335 69.0543 168.572 75.8505 170.88 82.7598L170.752 82.8165L170.766 82.8449ZM219.175 89.7683C218.92 89.2586 218.807 88.6923 218.679 88.126C207.735 86.4128 196.733 84.5863 185.718 83.0713C185.081 83.0713 184.387 83.2553 183.82 83.6942C183.183 84.0057 182.744 84.3879 182.419 85.0108C179.998 88.4231 178.199 92.4583 175.523 95.6723C173.683 97.6828 171.333 98.9995 168.6 99.5659C165.627 99.934 164.055 97.0743 163.12 94.5399C162.738 93.7753 162.625 92.8974 162.314 91.9346L156.409 72.9055C152.374 81.0467 149.231 89.386 145.833 97.5413C143.454 103.29 140.962 108.783 138.201 114.404C136.785 117.307 134.251 119.19 130.64 118.609C127.03 118.029 125.657 115.537 124.977 112.564C123.49 106.674 121.947 100.642 120.574 94.6813C118.96 87.8993 117.36 81.1172 115.618 74.3919C114.415 75.4679 113.381 76.9123 112.871 78.4272C110.493 83.8641 108.511 89.4143 105.75 94.7238C102.479 101.223 100.355 109.378 90.161 109.208C94.437 114.05 98.1463 118.369 101.927 122.503C113.508 135.416 125.09 148.342 139.405 158.168C141.047 159.259 142.435 160.462 144.53 158.961C150.633 154.686 157.174 150.99 162.837 146.148C176.897 133.688 190.772 120.846 204.336 107.693C209.816 102.468 214.276 96.154 219.118 90.2923L219.189 89.7824L219.175 89.7683Z" fill="#102185"/>
<path d="M251.81 117.873C248.893 119.318 246.613 119.176 244.659 116.826C242.705 114.475 242.847 111.87 244.886 110.242C254.174 103.134 256.071 92.5718 258.592 82.3351C258.861 80.622 259.186 79.0504 259.625 77.408C260.588 74.8736 262.499 72.9903 265.218 74.0239C266.988 74.7318 269.437 77.153 269.239 78.6679C267.766 92.9681 264.467 106.433 253.452 116.769C252.886 117.208 252.433 117.59 251.795 117.902L251.81 117.873Z" fill="#102185"/>
<path d="M272.665 125.575C269.366 127.203 267.087 127.387 265.189 125.15C264.807 124.711 264.368 124.131 264.127 123.621C263.887 123.111 263.816 122.347 263.816 121.724C263.816 121.087 264.014 120.521 264.212 119.954C264.411 119.388 264.793 118.878 265.359 118.439C272.368 111.516 276.658 102.299 277.592 92.6707C277.592 92.0336 277.79 91.4673 278.173 90.9576C278.498 90.3204 278.937 89.9523 279.39 89.57C279.9 89.3152 280.466 88.8762 281.047 88.7629C281.557 88.5081 282.194 88.5221 282.888 88.6495C283.525 88.6495 284.148 88.6496 284.657 89.046C285.224 89.2442 285.734 89.6265 286.102 90.0654C286.484 90.5043 286.923 91.0849 287.164 91.5946C287.404 92.1043 287.475 92.8689 287.404 93.3644C287.404 95.8988 287.121 98.5605 286.597 101.024C284.969 109.25 281.132 116.825 275.525 123.055C274.577 124.004 273.614 124.938 272.594 125.759L272.665 125.575Z" fill="#102185"/>
<path d="M34.531 101.407C32.6479 98.2356 30.2551 95.3048 28.8817 91.8785C26.8146 87.0504 25.3279 82.109 24.2093 76.9694C24.0253 74.6899 24.6764 72.4812 26.1489 70.6548C26.786 70.0318 27.5507 69.6494 28.4286 69.522C29.2498 69.2672 30.071 69.338 30.963 69.522C31.7842 69.9043 32.5346 70.485 33.0443 71.1788C33.554 71.8726 33.9789 72.7645 34.2338 73.5857C34.5169 80.8632 37.9007 86.7813 41.851 92.5581C43.3518 94.9792 44.6119 97.5137 45.419 100.119C46.4809 103.234 45.5748 105.881 42.2758 106.873C39.0335 107.991 37.207 106.207 35.9044 103.545L34.7149 101.138L34.8425 101.082L34.531 101.393V101.407Z" fill="#102185"/>
<path d="M3.07051 99.0846C1.82454 95.2759 0.889933 91.4671 0.0970478 87.6018C-0.45514 83.6091 1.39967 80.9615 4.37299 80.5934C8.16752 80.2961 9.55519 82.7739 10.164 85.9454C11.5799 92.9822 14.3974 99.0138 20.3298 103.346C20.8962 103.856 21.4626 104.366 21.8449 105.13C22.2272 105.895 22.5386 106.532 22.4678 107.353C22.397 108.174 22.4678 108.939 22.1422 109.562C21.8873 110.326 21.4341 111.02 20.9244 111.586C20.4147 112.153 19.7208 112.662 19.0837 112.974C18.4466 113.285 17.5548 113.413 16.8043 113.47C16.0539 113.526 15.2893 113.272 14.6522 112.946C14.0151 112.62 13.3212 112.181 12.8257 111.473C9.30017 107.523 6.15699 103.077 2.95713 99.1413L3.08468 99.0846H3.07051Z" fill="#102185"/>
</svg>

<svg xmlns="http://www.w3.org/2000/svg" width="288" height="170" fill="none" viewBox="0 0 288 170"><path fill="#102185" d="M148.353 26.182c2.237-2.52 4.078-4.53 5.989-6.428C169.563 3.571 187.941.498 208.683 6.063c23.461 6.272 37.747 33.952 32.225 59.565-2.534 11.822-8.226 22.059-15.178 31.644-14.866 20.757-34.646 36.657-53.293 53.59-6.867 6.23-15.008 11.186-22.697 16.396-5.21 3.511-10.463 2.789-15.701-.779-17.784-12.388-31.432-28.855-45.973-44.571-12.46-13.422-23.462-27.736-31.093-44.5-10.194-22.597-5.947-47.898 10.293-64.28 17.571-17.826 58.108-19.497 76.953 7.518 1.26 1.911 2.831 3.497 4.53 5.663l-.382-.127zm22.413 56.663c.637-.623 1.091-1.317 1.53-2.025 3.652-7.32 9.556-9.755 17.457-8.141 10.251 2.209 20.686 3.85 30.937 6.06 3.157.651 5.125.155 5.847-2.875 1.742-6.385 4.446-12.77 4.913-19.156.963-15.008-4.021-28.331-17.089-36.571-13.309-8.44-27.808-8.708-42.292-1.558-7.872 3.88-12.785 10.888-18.336 17.245-4.205 4.913-8.127 4.956-11.907-.439-2.011-2.803-4.021-5.593-6.032-8.396-12.063-16.778-32.253-19.935-49.314-14.201-15.929 5.48-26.789 24.424-24.806 43.17 1.557 15.334 9.528 27.977 18.08 40.182.694.764 1.572 1.274 2.591 1.401 8.736 1.7 9.36 1.388 13.338-6.57 1.529-2.972 2.817-6.13 4.162-9.16 2.945-6.499 5.65-12.884 8.779-19.326 1.416-2.903 3.327-5.748 7.249-5.465 3.865.141 5.55 3.256 7.051 6.3.312.637.694 1.402.878 2.096 2.166 7.928 4.347 15.857 6.329 23.715 1.062 3.738 1.798 7.476 2.662 11.157 3.256-6.187 5.508-12.502 8.014-18.633 3.086-7.518 6.031-14.98 9.741-22.172 2.945-5.876 9.146-5.465 12.289.255l1.19 2.407c2.308 6.91 4.545 13.705 6.853 20.615l-.128.056zm48.409 6.923c-.255-.51-.368-1.076-.496-1.642-10.944-1.713-21.946-3.54-32.961-5.055-.637 0-1.331.184-1.898.623-.637.312-1.076.694-1.401 1.317-2.421 3.412-4.22 7.447-6.896 10.661-1.84 2.01-4.19 3.328-6.923 3.894-2.973.368-4.545-2.492-5.48-5.026-.382-.765-.495-1.643-.806-2.605l-5.905-19.03c-4.035 8.142-7.178 16.481-10.576 24.636a285 285 0 0 1-7.632 16.863c-1.416 2.903-3.95 4.786-7.561 4.205s-4.983-3.072-5.663-6.045c-1.487-5.89-3.03-11.922-4.403-17.883-1.614-6.782-3.214-13.564-4.956-20.29-1.203 1.077-2.237 2.521-2.747 4.036-2.378 5.437-4.36 10.987-7.121 16.297-3.271 6.499-5.395 14.654-15.589 14.484 4.276 4.842 7.985 9.161 11.766 13.295 11.581 12.913 23.163 25.839 37.478 35.665 1.642 1.091 3.03 2.294 5.125.793 6.103-4.275 12.644-7.971 18.307-12.813a1262 1262 0 0 0 41.499-38.455c5.48-5.225 9.94-11.539 14.782-17.4l.071-.51zM251.81 117.873c-2.917 1.445-5.197 1.303-7.151-1.047-1.954-2.351-1.812-4.956.227-6.584 9.288-7.108 11.185-17.67 13.706-27.907a47 47 0 0 1 1.033-4.927c.963-2.534 2.874-4.418 5.593-3.384 1.77.708 4.219 3.129 4.021 4.644-1.473 14.3-4.772 27.765-15.787 38.101-.566.439-1.019.821-1.657 1.133zM272.665 125.575c-3.299 1.628-5.578 1.812-7.476-.425-.382-.439-.821-1.019-1.062-1.529-.24-.51-.311-1.274-.311-1.897 0-.637.198-1.203.396-1.77.199-.566.581-1.076 1.147-1.515 7.009-6.923 11.299-16.14 12.233-25.768 0-.637.198-1.204.581-1.713.325-.638.764-1.006 1.217-1.388.51-.255 1.076-.694 1.657-.807.51-.255 1.147-.24 1.841-.114.637 0 1.26 0 1.769.397.567.198 1.077.58 1.445 1.02.382.438.821 1.019 1.062 1.529.24.51.311 1.274.24 1.77a37.5 37.5 0 0 1-.807 7.659c-1.628 8.226-5.465 15.801-11.072 22.031-.948.949-1.911 1.883-2.931 2.704zM34.531 101.407c-1.883-3.171-4.276-6.102-5.65-9.528-2.066-4.829-3.553-9.77-4.672-14.91-.184-2.28.467-4.488 1.94-6.314a4.02 4.02 0 0 1 2.28-1.133c.82-.255 1.642-.184 2.534 0 .821.382 1.572.963 2.081 1.657.51.694.935 1.585 1.19 2.407.283 7.277 3.667 13.195 7.617 18.972 1.5 2.421 2.76 4.956 3.568 7.561 1.062 3.115.156 5.762-3.143 6.754-3.243 1.118-5.069-.666-6.372-3.328l-1.19-2.407.129-.056-.312.311zM3.07 99.085C1.826 95.275.89 91.467.098 87.602c-.552-3.993 1.303-6.64 4.276-7.009 3.795-.297 5.182 2.18 5.791 5.352 1.416 7.037 4.233 13.069 10.166 17.401.566.51 1.133 1.02 1.515 1.784.382.765.694 1.402.623 2.223s0 1.586-.326 2.209c-.255.764-.708 1.458-1.218 2.024a6.4 6.4 0 0 1-1.84 1.388c-.637.311-1.53.439-2.28.496s-1.515-.198-2.152-.524-1.33-.765-1.826-1.473c-3.526-3.95-6.669-8.396-9.869-12.332l.128-.056z"/></svg>
